GeneralPlan/dist/assets/img/footer-phone-icon.svg

<svg width="17" height="15" viewBox="0 0 17 15" fill="none" xmlns="http://www.w3.org/2000/svg">
<path d="M16.063 11.7051C15.8548 11.1236 15.2304 10.736 14.606 10.5422L12.5245 9.96074C12.1083 9.76692 11.2757 9.96074 10.8594 10.3484L10.0268 11.1236C7.32098 10.3484 5.03141 8.4102 4.40699 5.89057L5.23956 5.1153C5.4477 4.72766 5.65584 3.95239 5.65584 3.37094L5.03141 1.43276C4.82327 1.04512 4.19884 0.463671 3.78256 0.269853L3.57442 0.0760356C2.94999 -0.117782 2.11742 0.0760356 1.70114 0.463671L0.660425 1.62658C0.452283 1.8204 0.244141 2.40185 0.244141 2.40185C0.244141 5.69675 1.70114 8.99165 4.19884 11.3175C6.69655 13.6433 10.235 15 13.7734 15C13.7734 15 14.3978 14.8062 14.606 14.6124L15.6467 13.6433C16.063 13.2556 16.2711 12.4804 16.063 11.8989V11.7051Z" fill="white"/>
</svg>

<svg width="17" height="15" fill="none" xmlns="http://www.w3.org/2000/svg"><path d="M16.063 11.705c-.208-.581-.833-.969-1.457-1.163l-2.082-.581c-.416-.194-1.248 0-1.665.387l-.832.776C7.32 10.348 5.03 8.41 4.407 5.89l.833-.776c.208-.387.416-1.163.416-1.744L5.03 1.433C4.823 1.045 4.2.463 3.783.27L3.574.076c-.624-.194-1.457 0-1.873.388L.661 1.627c-.209.193-.417.775-.417.775 0 3.295 1.457 6.59 3.955 8.916C6.697 13.643 10.235 15 13.773 15c0 0 .625-.194.833-.388l1.04-.969c.417-.387.625-1.163.417-1.744v-.194z" fill="#fff"/></svg>
